flaticon/constructions/ladder-3.svg

<svg xmlns="http://www.w3.org/2000/svg" width="32" height="32" viewBox="0 0 24 24">
    <path d="M 18.703125 18.679688 L 7.664062 16.808594 L 7.664062 13.601562 L 13.261719 13.601562 L 13.261719 15.199219 C 13.261719 15.359375 13.34375 15.480469 13.464844 15.558594 L 14.261719 15.960938 C 14.421875 16.039062 14.625 16 14.742188 15.878906 L 15.261719 15.359375 L 15.78125 15.878906 C 15.863281 15.960938 15.941406 16 16.0625 16 C 16.144531 16 16.183594 16 16.222656 15.960938 L 17.023438 15.558594 C 17.183594 15.480469 17.261719 15.359375 17.261719 15.199219 L 17.261719 13.601562 L 18.464844 13.601562 C 18.703125 13.601562 18.863281 13.441406 18.863281 13.199219 L 18.863281 10 C 18.863281 9.761719 18.703125 9.601562 18.464844 9.601562 L 17.261719 9.601562 L 17.261719 6.800781 L 18.464844 6.800781 C 18.703125 6.800781 18.863281 6.640625 18.863281 6.398438 L 18.863281 3.199219 C 18.863281 2.960938 18.703125 2.800781 18.464844 2.800781 L 17.261719 2.800781 L 17.261719 0.398438 C 17.261719 0.160156 17.101562 0 16.863281 0 L 13.664062 0 C 13.421875 0 13.261719 0.160156 13.261719 0.398438 L 13.261719 2.800781 L 7.664062 2.800781 L 7.664062 0.398438 C 7.664062 0.160156 7.503906 0 7.261719 0 L 4.0625 0 C 3.824219 0 3.664062 0.160156 3.664062 0.398438 L 3.664062 2.800781 L 2.464844 2.800781 C 2.222656 2.800781 2.0625 2.960938 2.0625 3.199219 L 2.0625 6.398438 C 2.0625 6.640625 2.222656 6.800781 2.464844 6.800781 L 3.664062 6.800781 L 3.664062 9.601562 L 2.464844 9.601562 C 2.222656 9.601562 2.0625 9.761719 2.0625 10 L 2.0625 13.199219 C 2.0625 13.441406 2.222656 13.601562 2.464844 13.601562 L 3.664062 13.601562 L 3.664062 16.128906 L 2.902344 16 C 2.78125 16 2.703125 16 2.625 16.039062 C 2.542969 16.121094 2.464844 16.199219 2.464844 16.320312 L 1.941406 19.480469 C 1.902344 19.71875 2.0625 19.921875 2.261719 19.960938 L 3.664062 20.195312 L 3.664062 23.601562 C 3.664062 23.839844 3.824219 24 4.0625 24 L 7.261719 24 C 7.503906 24 7.664062 23.839844 7.664062 23.558594 L 7.664062 20.863281 L 13.261719 21.800781 L 13.261719 23.601562 C 13.261719 23.839844 13.421875 24 13.664062 24 L 16.863281 24 C 17.101562 24 17.261719 23.839844 17.261719 23.601562 L 17.261719 22.472656 L 18.023438 22.601562 C 18.0625 22.601562 18.0625 22.601562 18.101562 22.601562 C 18.304688 22.601562 18.464844 22.441406 18.503906 22.238281 L 19.023438 19.121094 C 19.023438 19.039062 19.023438 18.917969 18.941406 18.839844 C 18.902344 18.761719 18.824219 18.679688 18.703125 18.679688 Z M 16.464844 14.960938 L 16.144531 15.121094 L 15.542969 14.519531 C 15.464844 14.441406 15.382812 14.398438 15.261719 14.398438 C 15.183594 14.398438 15.0625 14.441406 14.984375 14.519531 L 14.382812 15.121094 L 14.0625 14.960938 L 14.0625 13.601562 L 16.464844 13.601562 Z M 16.464844 9.601562 L 14.0625 9.601562 L 14.0625 6.800781 L 16.464844 6.800781 Z M 7.664062 9.601562 L 7.664062 6.800781 L 13.261719 6.800781 L 13.261719 9.601562 Z M 14.0625 0.800781 L 16.464844 0.800781 L 16.464844 2.800781 L 14.0625 2.800781 Z M 4.464844 0.800781 L 6.863281 0.800781 L 6.863281 2.800781 L 4.464844 2.800781 Z M 2.863281 3.601562 L 18.0625 3.601562 L 18.0625 6 L 2.863281 6 Z M 4.464844 6.800781 L 6.863281 6.800781 L 6.863281 9.601562 L 4.464844 9.601562 Z M 2.863281 10.398438 L 18.0625 10.398438 L 18.0625 12.800781 L 2.863281 12.800781 Z M 4.464844 13.601562 L 6.863281 13.601562 L 6.863281 16.671875 L 4.464844 16.265625 Z M 6.863281 23.199219 L 4.464844 23.199219 L 4.464844 20.328125 L 6.863281 20.730469 Z M 16.464844 23.199219 L 14.0625 23.199219 L 14.0625 21.9375 L 16.464844 22.339844 Z M 17.78125 21.71875 L 17.054688 21.601562 C 17.023438 21.582031 16.984375 21.566406 16.941406 21.558594 L 13.742188 21.039062 C 13.695312 21.023438 13.644531 21.019531 13.601562 21.027344 L 7.488281 20.019531 C 7.445312 19.992188 7.398438 19.972656 7.34375 19.960938 L 4.144531 19.441406 C 4.082031 19.417969 4.023438 19.421875 3.964844 19.4375 L 2.78125 19.238281 L 3.183594 16.878906 L 3.917969 17.003906 C 3.941406 17.015625 3.960938 17.03125 3.984375 17.039062 L 7.183594 17.558594 C 7.207031 17.558594 7.21875 17.558594 7.230469 17.558594 L 18.183594 19.398438 Z M 17.78125 21.71875"/>
    <path d="M5.664062 12C5.902344 12 6.0625 11.839844 6.0625 11.601562 6.0625 11.398438 5.902344 11.199219 5.664062 11.199219 5.421875 11.199219 5.261719 11.359375 5.261719 11.601562 5.261719 11.839844 5.421875 12 5.664062 12zM5.664062 5.199219C5.902344 5.199219 6.0625 5.039062 6.0625 4.800781 6.0625 4.601562 5.902344 4.398438 5.664062 4.398438 5.421875 4.398438 5.261719 4.558594 5.261719 4.800781 5.261719 5.039062 5.421875 5.199219 5.664062 5.199219zM15.261719 5.199219C15.503906 5.199219 15.664062 5.039062 15.664062 4.800781 15.664062 4.601562 15.503906 4.398438 15.261719 4.398438 15.023438 4.398438 14.863281 4.558594 14.863281 4.800781 14.863281 5.039062 15.023438 5.199219 15.261719 5.199219zM15.261719 12C15.503906 12 15.664062 11.839844 15.664062 11.601562 15.664062 11.398438 15.503906 11.199219 15.261719 11.199219 15.023438 11.199219 14.863281 11.359375 14.863281 11.601562 14.863281 11.839844 15.023438 12 15.261719 12zM5.664062 18C5.421875 18 5.261719 18.160156 5.261719 18.398438 5.261719 18.640625 5.421875 18.800781 5.664062 18.800781 5.902344 18.800781 6.0625 18.640625 6.0625 18.398438 6.0625 18.199219 5.902344 18 5.664062 18zM15.261719 20.519531C15.503906 20.519531 15.664062 20.359375 15.664062 20.121094 15.664062 19.878906 15.503906 19.71875 15.261719 19.71875 15.023438 19.71875 14.863281 19.878906 14.863281 20.121094 14.863281 20.359375 15.023438 20.519531 15.261719 20.519531zM19.664062 15.199219C19.78125 15.199219 19.863281 15.160156 19.941406 15.078125L20.742188 14.28125C20.902344 14.121094 20.902344 13.878906 20.742188 13.71875 20.582031 13.558594 20.34375 13.558594 20.183594 13.71875L19.382812 14.519531C19.222656 14.679688 19.222656 14.921875 19.382812 15.078125 19.464844 15.160156 19.542969 15.199219 19.664062 15.199219zM21.664062 16L20.464844 16C20.222656 16 20.0625 16.160156 20.0625 16.398438 20.0625 16.640625 20.222656 16.800781 20.464844 16.800781L21.664062 16.800781C21.902344 16.800781 22.0625 16.640625 22.0625 16.398438 22.0625 16.160156 21.902344 16 21.664062 16zM19.941406 17.71875C19.78125 17.558594 19.542969 17.558594 19.382812 17.71875 19.222656 17.878906 19.222656 18.121094 19.382812 18.28125L20.183594 19.078125C20.261719 19.160156 20.34375 19.199219 20.464844 19.199219 20.582031 19.199219 20.664062 19.160156 20.742188 19.078125 20.902344 18.921875 20.902344 18.679688 20.742188 18.519531zM19.941406 17.71875"/>
</svg>

<svg xmlns="http://www.w3.org/2000/svg" width="32" height="32" viewBox="0 0 24 24">
    <path d="M18.703 18.68L7.664 16.809v-3.207h5.598v1.597c0 .16.082.281.203.36l.797.402c.16.078.363.039.48-.082l.52-.52.52.52c.081.082.16.121.28.121.083 0 .122 0 .16-.04l.801-.401c.16-.079.239-.2.239-.36v-1.597h1.203c.238 0 .398-.16.398-.403V10c0-.238-.16-.398-.398-.398h-1.203V6.8h1.203c.238 0 .398-.16.398-.403V3.2c0-.238-.16-.398-.398-.398h-1.203V.398c0-.238-.16-.398-.399-.398h-3.199c-.242 0-.402.16-.402.398v2.403H7.664V.398C7.664.16 7.504 0 7.262 0h-3.2c-.238 0-.398.16-.398.398v2.403h-1.2c-.241 0-.401.16-.401.398v3.2c0 .242.16.402.402.402h1.2v2.8h-1.2c-.242 0-.402.16-.402.399v3.2c0 .241.16.402.402.402h1.2v2.527L2.901 16c-.12 0-.199 0-.277.04-.082.081-.16.16-.16.28l-.524 3.16a.417.417 0 0 0 .32.48l1.403.235v3.407c0 .238.16.398.398.398h3.2c.242 0 .402-.16.402-.441v-2.696l5.598.938v1.8c0 .239.16.399.402.399h3.2c.238 0 .398-.16.398-.398v-1.13l.761.13h.079c.203 0 .363-.16.402-.364l.52-3.117c0-.082 0-.203-.083-.281-.039-.078-.117-.16-.238-.16zm-2.238-3.72l-.32.161-.602-.601a.369.369 0 0 0-.281-.122c-.078 0-.2.043-.278.122l-.601.601-.32-.16V13.6h2.402zm0-5.358h-2.402V6.8h2.402zm-8.8 0V6.8h5.597v2.8zM14.061.8h2.403v2h-2.402zM4.466.8h2.398v2H4.465zM2.863 3.6h15.2V6h-15.2zm1.602 3.2h2.398v2.8H4.465zm-1.602 3.597h15.2v2.403h-15.2zm1.602 3.204h2.398v3.07l-2.398-.406zm2.398 9.597H4.465v-2.87l2.398.401zm9.602 0h-2.402v-1.262l2.402.403zm1.316-1.48l-.726-.117a.326.326 0 0 0-.114-.043l-3.199-.52a.292.292 0 0 0-.14-.012L7.488 20.02a.433.433 0 0 0-.144-.06l-3.2-.519a.284.284 0 0 0-.18-.003l-1.183-.2.403-2.36.734.126c.023.012.043.027.066.035l3.2.52h.046l10.954 1.84zm0 0"/>
    <path d="M5.664 12c.238 0 .399-.16.399-.398a.4.4 0 0 0-.399-.403c-.242 0-.402.16-.402.403 0 .238.16.398.402.398zm0 0M5.664 5.2c.238 0 .399-.16.399-.4 0-.198-.16-.402-.399-.402-.242 0-.402.16-.402.403 0 .238.16.398.402.398zm0 0M15.262 5.2c.242 0 .402-.16.402-.4 0-.198-.16-.402-.402-.402-.239 0-.399.16-.399.403 0 .238.16.398.399.398zm0 0M15.262 12c.242 0 .402-.16.402-.398a.401.401 0 0 0-.402-.403c-.239 0-.399.16-.399.403 0 .238.16.398.399.398zm0 0M5.664 18c-.242 0-.402.16-.402.398 0 .243.16.403.402.403.238 0 .399-.16.399-.403A.4.4 0 0 0 5.663 18zm0 0M15.262 20.52c.242 0 .402-.16.402-.399 0-.242-.16-.402-.402-.402-.239 0-.399.16-.399.402 0 .238.16.399.399.399zm0 0M19.664 15.2c.117 0 .2-.04.277-.122l.801-.797a.39.39 0 0 0 0-.562.385.385 0 0 0-.558 0l-.801.8a.385.385 0 0 0 0 .56c.082.081.16.12.281.12zm0 0M21.664 16h-1.2c-.241 0-.401.16-.401.398 0 .243.16.403.402.403h1.2c.237 0 .398-.16.398-.403 0-.238-.16-.398-.399-.398zm0 0M19.941 17.719a.385.385 0 0 0-.558 0 .39.39 0 0 0 0 .562l.8.797c.079.082.16.121.282.121.117 0 .2-.039.277-.12a.385.385 0 0 0 0-.56zm0 0"/>
</svg>
